X:162
T:Kingsbridge Assembly. WM.144
T:Liberty For The Sailors,aka. WM.144
M:6/8
L:1/8
Q:3/8=120
S:Wm.Mittell's MS, New Romney,Kent,1799
R:Jig 32
O:England
A:Kent
Z:vmp.Chris Partington
K:D
f2ef2e|dcdA3|BAB AFD|EFGF2D|!
f2ef2e|dcdA3|BAG FGE|D3D3:|!
|:DFA AFD|G2BB3|Ace ecA|d2ff3|!
afdB2B|gecA2A|BAG FGE|D3D3:|

